X:2162
L:1/8
M:4/4
K:C
[M:6/8][K:G] a added e ecd edg[Q:1/8=160].B | gfe edB | gfg GAB | gfe edB | dBG A2 B | gfe edB | 
 gfg a2 b | gfg e/f/ge | dBG A2 :| B | de^c dBB | gfg GAB | d2 B e2 B | dBG A2 B | de^c dBB | 
 gfg a2 b | gfg e/f/ge |1 dBG A2 :|2 dBG AGF | G6 |]

